contributed-vectors/kahoot.svg

<svg xmlns="http://www.w3.org/2000/svg" xml:space="preserve" style="fill-rule:evenodd;clip-rule:evenodd;stroke-linejoin:round;stroke-miterlimit:2" viewBox="0 0 192 192"><path d="M164.5 21.5c0-5.519-4.481-10-10-10h-133c-5.519 0-10 4.481-10 10v133c0 5.519 4.481 10 10 10h133c5.519 0 10-4.481 10-10v-133Z" style="fill:#bd9aff" transform="translate(8 8)"/><path d="M102.656 136.827 89.274 87.566l20.17-23.273L96 58.475 67.994 84.897V51.509l-18.089 5.275v79.973l18.089 1.024v-29.006l9.225-9.612 10.504 38.051 14.933-.387ZM135.588 130.682l3.972 11.122-9.215 5.799-8.897-6.197 4.687-10.565 9.453-.159ZM113.358 45.624l18.618 78.546 12.412-72.146-31.03-6.4Z" style="fill:#fff" transform="matrix(.75368 0 0 .74801 23.782 27.732)"/></svg>

<?xml version="1.0" encoding="UTF-8" standalone="no"?>
<!DOCTYPE svg PUBLIC "-//W3C//DTD SVG 1.1//EN" "http://www.w3.org/Graphics/SVG/1.1/DTD/svg11.dtd">
<svg width="100%" height="100%" viewBox="0 0 192 192" version="1.1" xmlns="http://www.w3.org/2000/svg" xmlns:xlink="http://www.w3.org/1999/xlink" xml:space="preserve" xmlns:serif="http://www.serif.com/" style="fill-rule:evenodd;clip-rule:evenodd;stroke-linejoin:round;stroke-miterlimit:2;">
    <g id="Layer1">
        <g transform="matrix(1,0,0,1,8,8)">
            <path d="M164.5,21.5C164.5,15.981 160.019,11.5 154.5,11.5L21.5,11.5C15.981,11.5 11.5,15.981 11.5,21.5L11.5,154.5C11.5,160.019 15.981,164.5 21.5,164.5L154.5,164.5C160.019,164.5 164.5,160.019 164.5,154.5L164.5,21.5Z" style="fill:rgb(189,154,255);"/>
        </g>
        <g transform="matrix(0.753684,0,0,0.748015,23.7824,27.7317)">
            <path d="M102.656,136.827L89.274,87.566L109.444,64.293L96,58.475L67.994,84.897L67.994,51.509L49.905,56.784L49.905,136.757L67.994,137.781L67.994,108.775L77.219,99.163L87.723,137.214L102.656,136.827Z" style="fill:white;"/>
            <path d="M135.588,130.682L139.56,141.804L130.345,147.603L121.448,141.406L126.135,130.841L135.588,130.682Z" style="fill:white;"/>
            <path d="M113.358,45.624L131.976,124.17L144.388,52.024L113.358,45.624Z" style="fill:white;"/>
        </g>
    </g>
</svg>
